src/assets/images/reactions/women/big/angry.svg

<svg width="24" height="24" viewBox="0 0 24 24" fill="none" xmlns="http://www.w3.org/2000/svg">
<path d="M11.9996 22.4C17.588 22.4 22.1183 17.7437 22.1183 12C22.1183 6.25621 17.588 1.59998 11.9996 1.59998C6.41117 1.59998 1.88086 6.25621 1.88086 12C1.88086 17.7437 6.41117 22.4 11.9996 22.4Z" fill="url(#paint0_linear_862_4938)"/>
<path d="M7.08008 8.80005L9.56121 10.768" stroke="#303030" stroke-miterlimit="10" stroke-linecap="round" stroke-linejoin="round"/>
<path d="M16.8991 8.80005L14.418 10.768" stroke="#303030" stroke-miterlimit="10" stroke-linecap="round" stroke-linejoin="round"/>
<path d="M16.9197 11.4321C16.9197 12.4407 16.4956 13.277 15.9442 13.277C15.4141 13.277 14.9688 12.4407 14.9688 11.4321C14.9688 10.4235 15.3929 9.58716 15.9442 9.58716C16.4956 9.58716 16.9197 10.4235 16.9197 11.4321Z" fill="#303030"/>
<path d="M16.2676 12.7106L16.7992 13.2" stroke="#303030" stroke-width="0.5" stroke-linecap="round"/>
<path d="M15.9994 12.1222L17.0205 12.48" stroke="#303030" stroke-width="0.5" stroke-linecap="round"/>
<path d="M7.30098 11.4321C7.30098 12.4407 7.7251 13.277 8.27646 13.277C8.80662 13.277 9.25195 12.4407 9.25195 11.4321C9.25195 10.4235 8.82783 9.58716 8.27646 9.58716C7.7251 9.58716 7.30098 10.4235 7.30098 11.4321Z" fill="#303030"/>
<path d="M7.95312 12.7106L7.42148 13.2" stroke="#303030" stroke-width="0.5" stroke-linecap="round"/>
<path d="M8.22127 12.1222L7.2002 12.48" stroke="#303030" stroke-width="0.5" stroke-linecap="round"/>
<path d="M9.59961 16C9.59961 16 11.611 14.2 14.3996 16" stroke="#5B0600" stroke-miterlimit="10" stroke-linecap="round" stroke-linejoin="round"/>
<defs>
<linearGradient id="paint0_linear_862_4938" x1="11.9997" y1="1.59998" x2="11.506" y2="22.3883" gradientUnits="userSpaceOnUse">
<stop stop-color="#EB3E7D"/>
<stop offset="0.0001" stop-color="#FF4062"/>
<stop offset="0.140687" stop-color="#F34F6D"/>
<stop offset="0.299665" stop-color="#F86390"/>
<stop offset="0.5514" stop-color="#E76493"/>
<stop offset="1" stop-color="#FD7FB4"/>
</linearGradient>
</defs>
</svg>

<svg xmlns="http://www.w3.org/2000/svg" width="24" height="24" fill="none">
  <path fill="url(#a)" d="M12 22.4c5.588 0 10.118-4.656 10.118-10.4 0-5.744-4.53-10.4-10.118-10.4C6.41 1.6 1.88 6.256 1.88 12c0 5.744 4.531 10.4 10.12 10.4Z"/>
  <path stroke="#303030" stroke-linecap="round" stroke-linejoin="round" stroke-miterlimit="10" d="m7.08 8.8 2.481 1.968M16.9 8.8l-2.482 1.968"/>
  <path fill="#303030" d="M16.92 11.432c0 1.009-.424 1.845-.976 1.845-.53 0-.975-.836-.975-1.845 0-1.008.424-1.845.975-1.845.552 0 .976.837.976 1.845Z"/>
  <path stroke="#303030" stroke-linecap="round" stroke-width=".5" d="m16.268 12.71.531.49M16 12.122l1.02.358"/>
  <path fill="#303030" d="M7.301 11.432c0 1.009.424 1.845.975 1.845.53 0 .976-.836.976-1.845 0-1.008-.424-1.845-.976-1.845-.55 0-.975.837-.975 1.845Z"/>
  <path stroke="#303030" stroke-linecap="round" stroke-width=".5" d="m7.953 12.71-.532.49M8.221 12.122l-1.02.358"/>
  <path stroke="#5B0600" stroke-linecap="round" stroke-linejoin="round" stroke-miterlimit="10" d="M9.6 16s2.011-1.8 4.8 0"/>
  <defs>
    <linearGradient id="a" x1="12" x2="11.506" y1="1.6" y2="22.388" gradientUnits="userSpaceOnUse">
      <stop stop-color="#EB3E7D"/>
      <stop offset="0" stop-color="#FF4062"/>
      <stop offset=".141" stop-color="#F34F6D"/>
      <stop offset=".3" stop-color="#F86390"/>
      <stop offset=".551" stop-color="#E76493"/>
      <stop offset="1" stop-color="#FD7FB4"/>
    </linearGradient>
  </defs>
</svg>
